assets/img/arrow-angle-right.svg

<svg fill="none" height="793" viewBox="0 0 463 793" width="463" xmlns="http://www.w3.org/2000/svg"><path d="m453.204 370.896-396.3445-361.191c-13.006-12.94-34.099-12.94-47.105 0-13.006 12.939-13.006 33.934 0 46.874l372.4465 339.438-372.41351 339.437c-13.006 12.94-13.006 33.935 0 46.874 13.00601 12.939 34.09901 12.939 47.10401 0l396.3455-361.191c6.932-6.898 9.904-16.043 9.441-25.087.431-9.078-2.54-18.222-9.474-25.154z" fill="#fff"/></svg>

<svg width="463" height="793" viewBox="0 0 463 793" fill="none" xmlns="http://www.w3.org/2000/svg">
<path d="M453.204 370.896L56.8595 9.705C43.8535 -3.235 22.7605 -3.235 9.7545 9.705C-3.2515 22.644 -3.2515 43.639 9.7545 56.579L382.201 396.017L9.78749 735.454C-3.21851 748.394 -3.21851 769.389 9.78749 782.328C22.7935 795.267 43.8865 795.267 56.8915 782.328L453.237 421.137C460.169 414.239 463.141 405.094 462.678 396.05C463.109 386.972 460.138 377.828 453.204 370.896Z" fill="white"/>
</svg>
